X:1
T:Niel Gow's Reel
R:reel
B:Ryan's Mammoth Collection
Z:Contributed by Ray Davies,  ray:davies99.freeserve.co.uk
M:2/4
L:1/16
K:A
v(F|E2)C>E A,>EC>E|A,>EC>E F>B,B,>(F|E2)C>E A,>EC>E|d>fe>d c>AA>(F|
E2)C>E A,>EC>E|A,>EC>E F>B,B,>(F|E2)C>E A,>EC>E|d>fe>d (cA).A|]
ud|((3cBA)e>A f>A((3cBA)|(c>A)e>c d>BB>d|((3cBA)e>A f>A((3cBA)|\
(E>G)B>d c>AA>d|
((3cBA)e>A f>A((3cBA)|c>Ae>c (d>B)(B>d)|c>eA>c d>fB>d|\
E>GB>d (cA).A "D.C."|]
